symbolic/48x48/places/folder-grey-android.svg

<svg xmlns="http://www.w3.org/2000/svg" width="48" height="48" version="1">
 <rect style="opacity:0.2" width="40" height="26" x="4" y="17" rx="2" ry="2"/>
 <path style="fill:#727272" d="M 4,34 C 4,35.108 4.892,36 6,36 H 42 C 43.108,36 44,35.108 44,34 V 12 C 44,10.892 43.108,10 42,10 H 24 C 21,10 20,6 17,6 H 6 C 4.892,6 4,6.892 4,8"/>
 <rect style="opacity:0.2" width="40" height="26" x="4" y="15" rx="2" ry="2"/>
 <rect style="fill:#b2bfd9" width="36" height="16" x="6" y="13" rx="2" ry="2"/>
 <rect style="fill:#8e8e8e" width="40" height="26" x="4" y="16" rx="2" ry="2"/>
 <path style="opacity:0.1;fill:#f4f4f7" d="M 6,6 C 4.892,6 4,6.892 4,8 V 9 C 4,7.892 4.892,7 6,7 H 17 C 20,7 21,11 24,11 H 42 C 43.108,11 44,11.892 44,13 V 12 C 44,10.892 43.108,10 42,10 H 24 C 21,10 20,6 17,6 Z"/>
 <path style="fill:#323232" d="m17.792969 23.990234a0.80008001 0.80008001 0 0 0-0.611328 1.316407l1.435547 1.755859c-1.449157 1.302677-2.418991 3.122492-2.615235 5.167969-0.036746 0.769972 0.775391 0.769531 0.775391 0.769531h14.425781s0.835451-1.68e-4 0.794922-0.808594c-0.204754-2.0309-1.171962-3.836209-2.613281-5.130859l1.433593-1.753906a0.80008001 0.80008001 0 0 0-0.634765-1.314453 0.80008001 0.80008001 0 0 0-0.603516 0.300781l-1.492187 1.826172c-1.198382-0.706725-2.592035-1.119141-4.085938-1.119141-1.49457 0-2.891106 0.411831-4.089844 1.119141l-1.492187-1.826172a0.80008001 0.80008001 0 0 0-0.626953-0.302735z"/>
 <circle style="fill:#8e8e8e" cx="20" cy="30" r="1"/>
 <circle style="fill:#8e8e8e" cx="-28" cy="30" r="1" transform="scale(-1,1)"/>
</svg>

<svg xmlns="http://www.w3.org/2000/svg" width="48" height="48" version="1"><rect style="opacity:.2" width="40" height="26" x="4" y="17" rx="2" ry="2"/><path style="fill:#727272" d="M4 34c0 1.108.892 2 2 2h36c1.108 0 2-.892 2-2V12c0-1.108-.892-2-2-2H24c-3 0-4-4-7-4H6c-1.108 0-2 .892-2 2"/><rect style="opacity:.2" width="40" height="26" x="4" y="15" rx="2" ry="2"/><rect style="fill:#b2bfd9" width="36" height="16" x="6" y="13" rx="2" ry="2"/><rect style="fill:#8e8e8e" width="40" height="26" x="4" y="16" rx="2" ry="2"/><path style="opacity:.1;fill:#f4f4f7" d="M6 6c-1.108 0-2 .892-2 2v1c0-1.108.892-2 2-2h11c3 0 4 4 7 4h18c1.108 0 2 .892 2 2v-1c0-1.108-.892-2-2-2H24c-3 0-4-4-7-4z"/><path style="fill:#323232" d="M17.793 23.99a.8.8 0 0 0-.611 1.317l1.435 1.756a7.966 7.966 0 0 0-2.615 5.167c-.037.77.775.77.775.77h14.426s.836 0 .795-.809a7.964 7.964 0 0 0-2.613-5.13l1.433-1.754a.8.8 0 0 0-.634-1.315.8.8 0 0 0-.604.301l-1.492 1.826a8.023 8.023 0 0 0-8.176 0l-1.492-1.826a.8.8 0 0 0-.627-.303z"/><circle style="fill:#8e8e8e" cx="20" cy="30" r="1"/><circle style="fill:#8e8e8e" cx="-28" cy="30" r="1" transform="scale(-1 1)"/></svg>
